X:1
T:Al Padre
T:Al Padre
T:Giovanni Pietro Biandra
T:Aria
T:Source : Madrigaletti a 1, 2 e 3 voci. Libro primo---Venezia---B.Magni (Gardano)---1626. Editor : André Vierendeels (15/03/15).
T:Notes : Original clefs : C1, F4 Editorial accidentals above the staff First part from Trilogy (?)
C:Giovanni Pietro Biandra
%%score 1 2
L:1/8
Q:1/4=110
M:3/2
K:F
V:1 treble nm="Canto" snm="C"
V:2 bass nm="BC" snm="BC"
V:1
 F4 G4 G4 | A2 G2 A2 B2 c2 B2 | c2 A2 B2 A2 B2 c2 | d4 c8 | =B4 c8 |"^b" z4 B4 B4 | A4 c4 B4 | %7
w: Se * co|na- * que _ e- *|ter- * na- * men- *|* t'a-|mo- re|tu sei'l|piu vec- chio'a-|
w: Tu con il|Fi- * glio'in _ si- *|mi- * le _ Sem- *|* blan-|* te|non ge-|ne- ra- to|
w: A- man- do'an-|cor _ il _ mon- *|do'e- * la _ na- *|tu- *|* ra|qua- si|par- to no-|
w: A- man- do|pur _ o- * gni _|co- * sa _ fa- *|ce- *|* sti|non can-|gian- do fi-|
 A4 A4 B2 c2 | d4 d2 e2 ^c4 |[M:4/4] d8 :: z2 B2 cd_ed | c4 B4 | z2 G2 A2 B2 | c6 B2 | A2 G2 F3 E | %15
w: man- te'a- mo- *|ro- so mio Di-|o,|ne'in al- tro lo- co'a-|van- te|si vid' A-|mor che|nel tuo vi- vo|
w: mi- ri nel' in-|di- vi- s'o- biet-|to,|e ti- mi- ran- do|Spi- ri|un vi- vo'A-|mor in|quel- le Fiam- me|
w: vel- lo cre- a-|sti'e- ter- no Pa-|dre,|e co- si va- go'e|bel- lo|tu lo for-|ma- sti|d'u- na mas- sa'im-|
w: gu- ra in nu-|me- ro per- fet-|to,|in pe- so'ed in mi-|su- ra|mi- su- ra'in|a- mar|l'huom mai non ha-|
 E4 D4 | z2 A2 B2 c2 | d6 c2 | B2 A2 G4- | G2 G2 G4 | F8 :| %21
w: co- re,|si vid' A-|mor che|nel tuo vi-|* vo co-|re.|
w: San- te,|un vi- vo'A-|mor in|quel- le Fiam-|* me San-|te.|
w: pu- ra,|tu lo gor-|ma- sti|d'u- na mas-|* sa'im- pu-|ra.|
w: ve- sti,|mi- su- ra'in|a- mar|l'huom mai non|_ ha- ve-|sti.|
V:2
 F,4 B,,4 C,4 | F,4 G,4 A,4 | F,4 G,4 A,4 | B,4 _E,4 F,4 | G,4 C,4 D,4 | _E,4 D,4 E,4 | %6
 F,4 C,4 G,,4 | D,2 E,2 F,4 G,2 A,2 | B,4 G,4 A,4 |[M:4/4] D,8 :: G,4 _E,4 | F,4 B,,2 A,,2 | %12
 G,,2 C,2 F,,4 | E,,4 F,,2 G,,2 | A,,4 B,,2 G,,2 | A,,4 D,2 E,2 | F,2 D,2 G,2 A,2 | %17
 B,2 D,2 E,2 F,2 | G,6 G,,2 | A,,2 B,,2 C,4 | F,,8 :| %21

